packages/ui-icons/svg/Line/question.svg

<svg viewBox="0 0 1920 1920" version="1.1" xmlns="http://www.w3.org/2000/svg">
    <path d="M960,1807.05882 C492.875294,1807.05882 112.941176,1427.12471 112.941176,960 C112.941176,492.875294 492.875294,112.941176 960,112.941176 C1427.12471,112.941176 1807.05882,492.875294 1807.05882,960 C1807.05882,1427.12471 1427.12471,1807.05882 960,1807.05882 M960,0 C430.644706,0 0,430.644706 0,960 C0,1489.35529 430.644706,1920 960,1920 C1489.35529,1920 1920,1489.35529 1920,960 C1920,430.644706 1489.35529,0 960,0 M960.056471,1355.18118 L1016.52706,1355.29412 L960.056471,1355.29412 L960.056471,1355.18118 L960.056471,1355.18118 Z M752.64,409.648941 C836.329412,344.933647 944.301176,323.248941 1049.33647,350.354824 C1164.19765,380.058353 1257.6,473.460706 1287.30353,588.321882 C1310.68235,678.787765 1298.03294,771.625412 1251.84,849.780706 C1206.32471,926.806588 1130.65412,983.728941 1044.25412,1005.86541 C1030.47529,1009.36659 1016.47059,1020.66071 1016.47059,1037.71482 L1016.47059,1037.71482 L1016.47059,1129.42306 L903.529412,1129.42306 L903.529412,1037.71482 C903.529412,971.644235 949.835294,913.592471 1016.24471,896.425412 C1073.84471,881.743059 1124.21647,843.794824 1154.59765,792.406588 C1185.43059,740.114824 1193.78824,677.658353 1177.97647,616.557176 C1158.32471,540.886588 1096.77176,479.333647 1021.10118,459.681882 C950.174118,441.498353 877.552941,455.728941 821.76,498.985412 C766.08,542.128941 734.117647,607.296 734.117647,677.658353 L734.117647,677.658353 L621.176471,677.658353 C621.176471,572.058353 669.063529,474.364235 752.64,409.648941 Z M960.056471,1242.35294 C897.712941,1242.35294 847.115294,1293.06353 847.115294,1355.29412 C847.115294,1417.52471 897.712941,1468.23529 960.056471,1468.23529 C1022.28706,1468.23529 1072.99765,1417.52471 1072.99765,1355.29412 C1072.99765,1293.06353 1022.28706,1242.35294 960.056471,1242.35294 L960.056471,1242.35294 Z" stroke="none" stroke-width="1" fill-rule="evenodd"/>
</svg>

<svg viewBox="0 0 1920 1920" xmlns="http://www.w3.org/2000/svg">
    <path d="M960 1807.059c-467.125 0-847.059-379.934-847.059-847.059 0-467.125 379.934-847.059 847.059-847.059 467.125 0 847.059 379.934 847.059 847.059 0 467.125-379.934 847.059-847.059 847.059M960 0C430.645 0 0 430.645 0 960s430.645 960 960 960 960-430.645 960-960S1489.355 0 960 0m.056 1355.181 56.471.113h-56.47v-.113ZM752.64 409.65c83.69-64.715 191.661-86.4 296.696-59.294 114.862 29.703 208.264 123.106 237.968 237.967 23.378 90.466 10.729 183.303-35.464 261.459-45.515 77.026-121.186 133.948-207.586 156.084-13.779 3.502-27.783 14.796-27.783 31.85v91.708H903.529v-91.708c0-66.07 46.306-124.123 112.716-141.29 57.6-14.682 107.971-52.63 138.353-104.018 30.833-52.292 39.19-114.749 23.378-175.85-19.651-75.67-81.204-137.223-156.875-156.875-70.927-18.184-143.548-3.953-199.341 39.303-55.68 43.144-87.642 108.311-87.642 178.673H621.176c0-105.6 47.888-203.294 131.464-268.01Zm207.416 832.704c-62.343 0-112.94 50.71-112.94 112.941 0 62.23 50.597 112.941 112.94 112.941 62.231 0 112.942-50.71 112.942-112.94 0-62.231-50.71-112.942-112.942-112.942Z" fill-rule="evenodd"/>
</svg>
